Icons/Colored/ArrowDownSliderOutlined.svg

<svg xmlns="http://www.w3.org/2000/svg" xml:space="preserve" fill-rule="evenodd" stroke-linejoin="round" stroke-miterlimit="2" clip-rule="evenodd" viewBox="0 0 64 64">
  <g id="blue">
    <path fill="#73a7c7" d="M19.944 37.181V14.348H31v33.89L19.944 37.181Zm24.112 0L33 48.238v-33.89h11.056v22.833Z"/>
    <path fill="#4bc3f1" d="M45.056 37.596 32 50.652V13.348h13.056v24.248Zm-1-.415V14.348H33v33.89l11.056-11.057Z"/>
    <path fill="#4f8198" d="M18.944 37.596V13.348H32v37.304L18.944 37.596Zm1-.415L31 48.238v-33.89H19.944v22.833Z"/>
  </g>
</svg>

<?xml version="1.0" encoding="UTF-8" standalone="no"?>
<!DOCTYPE svg PUBLIC "-//W3C//DTD SVG 1.1//EN" "http://www.w3.org/Graphics/SVG/1.1/DTD/svg11.dtd">
<svg width="100%" height="100%" viewBox="0 0 64 64" version="1.1" xmlns="http://www.w3.org/2000/svg" xmlns:xlink="http://www.w3.org/1999/xlink" xml:space="preserve" xmlns:serif="http://www.serif.com/" style="fill-rule:evenodd;clip-rule:evenodd;stroke-linejoin:round;stroke-miterlimit:2;">
    <path d="M18.944,13.348L45.056,13.348L45.056,37.596L32,50.652L18.944,37.596L18.944,13.348Z" style="fill:#73a7c7;fill-rule:nonzero;"/>
    <path d="M45.056,37.596L32,50.652L32,13.348L45.056,13.348L45.056,37.596ZM44.056,37.181L44.056,14.348L33,14.348L33,48.238L44.056,37.181Z" style="fill:#4bc3f1;"/>
    <path d="M18.944,37.596L18.944,13.348L32,13.348L32,50.652L18.944,37.596ZM19.944,37.181L31,48.238L31,14.348L19.944,14.348L19.944,37.181Z" style="fill:#4f8198;"/>
</svg>
